icons/hash-16.svg

<svg xmlns="http://www.w3.org/2000/svg" width="16" height="16" viewBox="0 0 16 16"><path fill-rule="evenodd" d="M6.368 1.01a.75.75 0 01.623.859L6.57 4.5h3.98l.46-2.868a.75.75 0 011.48.237L12.07 4.5h2.18a.75.75 0 010 1.5h-2.42l-.64 4h2.56a.75.75 0 010 1.5h-2.8l-.46 2.869a.75.75 0 01-1.48-.237l.42-2.632H5.45l-.46 2.869a.75.75 0 01-1.48-.237l.42-2.632H1.75a.75.75 0 010-1.5h2.42l.64-4H2.25a.75.75 0 010-1.5h2.8l.46-2.868a.75.75 0 01.858-.622zM9.67 10l.64-4H6.33l-.64 4h3.98z"/></svg>

<svg xmlns="http://www.w3.org/2000/svg" width="16" height="16" viewBox="0 0 16 16">
  <defs/>
  <path d="M6.368,1.01 C6.777,1.075 7.056,1.46 6.991,1.869 L6.57,4.5 L10.55,4.5 L11.01,1.632 C11.089,1.237 11.466,0.975 11.864,1.039 C12.262,1.103 12.538,1.469 12.49,1.869 L12.07,4.5 L14.25,4.5 C14.664,4.5 15,4.836 15,5.25 C15,5.664 14.664,6 14.25,6 L11.83,6 L11.19,10 L13.75,10 C14.164,10 14.5,10.336 14.5,10.75 C14.5,11.164 14.164,11.5 13.75,11.5 L10.95,11.5 L10.49,14.369 C10.411,14.764 10.034,15.026 9.636,14.962 C9.238,14.898 8.962,14.532 9.01,14.132 L9.43,11.5 L5.45,11.5 L4.99,14.369 C4.911,14.764 4.534,15.026 4.136,14.962 C3.738,14.898 3.462,14.532 3.51,14.132 L3.93,11.5 L1.75,11.5 C1.336,11.5 1,11.164 1,10.75 C1,10.336 1.336,10 1.75,10 L4.17,10 L4.81,6 L2.25,6 C1.836,6 1.5,5.664 1.5,5.25 C1.5,4.836 1.836,4.5 2.25,4.5 L5.05,4.5 L5.51,1.632 C5.576,1.224 5.959,0.945 6.368,1.01 Z M9.67,10 L10.31,6 L6.33,6 L5.69,10 Z"/>
</svg>
